img/pinterest.svg

<svg width="16" height="19" viewBox="0 0 16 19" fill="none" xmlns="http://www.w3.org/2000/svg">
<path d="M13.2389 2.42924C11.9999 1.23981 10.2852 0.584717 8.4108 0.584717C5.54752 0.584717 3.78648 1.75842 2.81335 2.74297C1.61405 3.95633 0.926331 5.56742 0.926331 7.16324C0.926331 9.16689 1.76441 10.7048 3.1679 11.2769C3.26212 11.3155 3.35693 11.335 3.44987 11.335C3.74595 11.335 3.98055 11.1412 4.06183 10.8305C4.1092 10.6522 4.21899 10.2124 4.26671 10.0214C4.36888 9.64434 4.28633 9.46297 4.06351 9.20039C3.65759 8.7201 3.46857 8.15215 3.46857 7.41299C3.46857 5.21746 5.1034 2.88405 8.13341 2.88405C10.5376 2.88405 12.0311 4.25049 12.0311 6.45009C12.0311 7.83813 11.7321 9.12358 11.189 10.0698C10.8117 10.7273 10.1481 11.511 9.12941 11.511C8.68888 11.511 8.29318 11.3301 8.04349 11.0146C7.80761 10.7164 7.72987 10.3311 7.82473 9.92962C7.9319 9.47598 8.07803 9.00277 8.21945 8.5453C8.47739 7.70977 8.72122 6.92062 8.72122 6.29102C8.72122 5.21409 8.05916 4.49049 7.07391 4.49049C5.82177 4.49049 4.84081 5.76225 4.84081 7.38576C4.84081 8.18199 5.05243 8.77752 5.14822 9.0062C4.99048 9.67453 4.05301 13.6479 3.87518 14.3971C3.77237 14.8345 3.15298 18.2891 4.17817 18.5646C5.33005 18.8741 6.35965 15.5095 6.46444 15.1293C6.54938 14.8201 6.84656 13.651 7.02868 12.9322C7.58473 13.4679 8.48006 13.8299 9.35124 13.8299C10.9936 13.8299 12.4705 13.0909 13.5101 11.7491C14.5184 10.4476 15.0737 8.6336 15.0737 6.64149C15.0737 5.08411 14.4049 3.54878 13.2389 2.42924Z" fill="white"/>
</svg>

<svg width="16" height="19" fill="none" xmlns="http://www.w3.org/2000/svg"><path d="M13.239 2.43C11.999 1.24 10.285.584 8.41.584c-2.863 0-4.625 1.173-5.598 2.158C1.614 3.956.926 5.567.926 7.163c0 2.004.838 3.542 2.242 4.114a.742.742 0 00.282.058c.296 0 .53-.194.612-.505.047-.178.157-.618.205-.809.102-.377.02-.558-.203-.82-.406-.48-.595-1.049-.595-1.788 0-2.196 1.634-4.529 4.664-4.529 2.405 0 3.898 1.366 3.898 3.566 0 1.388-.299 2.674-.842 3.62-.377.657-1.04 1.441-2.06 1.441-.44 0-.836-.18-1.086-.496-.235-.299-.313-.684-.218-1.085.107-.454.253-.927.394-1.385.258-.835.502-1.624.502-2.254 0-1.077-.662-1.8-1.647-1.8-1.252 0-2.233 1.271-2.233 2.895 0 .796.211 1.392.307 1.62-.158.669-1.095 4.642-1.273 5.391-.103.438-.722 3.892.303 4.168 1.152.31 2.182-3.056 2.286-3.436.085-.309.383-1.478.565-2.197.556.536 1.451.898 2.322.898 1.643 0 3.12-.74 4.16-2.08 1.007-1.302 1.563-3.116 1.563-5.109 0-1.557-.67-3.092-1.835-4.212z" fill="#fff"/></svg>
